X:1
T:The Well-Tempered Clavier Part II Fuga X
T:BWV 879
T:J. S. Bach
%%score { ( 1 3 4 ) | 2 }
L:1/8
Q:1/4=144
M:2/2
K:G
V:1 treble nm="Harp"
V:3 treble 
V:4 treble 
V:2 bass 
V:1
"^Vivace" (3z EF | G/4F/4G3/2 A/G/F/G/ A2 B/A/G/A/ | B2 G2 E2 c2- | c2 (3:2:2B2 ^d e2 A2- | %4
 A2 (3:2:2G2 ^d e2 F2- | (3FGA (3GFE (3^DcB (3AGF | (3GAB (3AGF (3Eed (3^cB^A | %7
 (3Bdf ^g2 (3^ce=g ^a2 | (3df^a b2- (3b=ag (3fe^d | e4 d4 | %10
 d/4^c/4d/4c/4d/4c/4d/4c/4 d/4c/4d/4c/4d/4c/4d/4c/4 B4 | ^A2 B2 ^c4- | c2 (3:2:2f2 ^A B4- | %13
 (3BGB ^c2- (3cA=c ^d2- | (3dB^d e2 e4- | (3e^de f2- (3fe=d (3^c^de | (3^def B2- (3BAG (3ABc- | %17
 c2 (3BAG A2 ^D2 | B4- (3:2:2B2 E (3:2:2^D2 E | c4- (3:2:2c2 F (3:2:2E2 F | d4- (3dGA (3Bcd | %21
 e4- (3eFG (3ABc | d4- (3dEF (3GAB | c4- (3cDE (3FGA | B2 c/B/A/B/ c2 d/c/B/c/ | %25
 d2 B2 G2 e/4d/4e3/2- | e2 (3:2:2d2 f g2 c2- | c2 (3:2:2B2 f g2 A2- | (3ABc (3BAG (3Fed (3cBA | %29
 (3Bcd (3cBA (3Ggf (3ed^c | d2 z2 ^c2 z2 | c2 z2 B2 d2 | g4 f4 | e4 d4 | ^c2 d2 e4- | %35
 (3:2:2e2 ^c (3:2:2d2 e f4- | (3:2:2f2 ^d (3:2:2e2 f g2 (3B^A^G | ^A2 (3d^cB ^a2 d/4c/4B/4c/4-c | %38
 f6 e2- | (3efe (3d^cB z2 F2 | B4 a4- | a2 g2 f4- | f4 (3z e^G ^A2 | (3df^A B2- B4- | %44
 (3B^cB (3^A^GF (3z B=A (3=GFE | (3^AF^G (3AB^c (3d^CD (3EF=G- | G2 (3FED E2 ^A,2 | %47
 F4- (3:2:2F2 B, (3:2:2^A,2 B, | G4- (3:2:2G2 ^C (3:2:2B,2 C | A4- A2 ^D2 | E2 z2 c2 z2 | %51
 B2 (3z ed (3cBA (3^GAB | (3EFE (3:2:2B2 ^d e2 (3^C^DE | (3^DEF (3:2:2G2 ^d e2 F2- | %54
 (3FGA (3GFE z2 ^d2 | e4 (3z fe (3dcB | (3cde (3dcB (3Aba (3gfe | (3fga (3gfe (3ded (3cBA | %58
 (3Bcd (3cBA G z z2 | z4 z2 (3z AB | c2 d/c/B/c/ d2 e/d/c/d/ | e2 c2 A2 =f2- | %62
 f2 (3:2:2e2 ^g a2 d2- | d2 (3:2:2c2 ^g a2 B2- | (3Bcd (3cBA (3^G=fe (3dcB | (3cde (3dcB A4- | %66
 A4- (3A^DE (3FGA | G4- (3G^DE (3GFA | (3:2:2^D2 E F2- (3FB,D (3FBD | E4- (3EG^A (3^c^de | %70
 E2[Q:1/4=72]"^Adagio" E/4^D/4E/4D/4E/4D/4E/4!fermata!D/4[Q:1/4=144]"^Vivace" z4 | %71
 (3z B,^C (3^DEF (3GcB (3AGF | (3Ege ^c2 (3Faf ^d2 | (3Gbg (3ed^c d4 | (3cFE (3^DEF (3GAB (3cBA | %75
 (3^def (3BcA (3GFG (3ABc- | c2 (3BAG A4- | (3:2:2A2 F (3:2:2B2 A G4- | %78
 (3GBA (3GFE (3:2:2^D2 c- (3cED | (3BEG ^c2- (3:2:2c2 A ^d2- | (3:2:2d2 B e2- (3:2:2e2 ^d f2- | %81
 (3:2:2f2 e g2 z4 | (3z cf (3a^df (3cBd (3fAc | %83
 (3GFA (3cFA[Q:1/4=72]"^Adagio" (3:2:9E(4:4:4E/4^D/4E/4D/4(4:4:4e/4^d/4c/4d/4[Q:1/4=144]"^Vivace" e2- | %84
 (3edc (3BAG (3AFG (3ABc | (3cBA (3G^DE- (6:4:4EF/A/c (12:8:5(1:1:4E/D/E/D/E | E8 |] %87
V:2
 z2 | z8 | z8 | z8 | z8 | z8 | z8 | z8 | z8 | z8 | z8 | z8 | z4 z2 (3z E,F, | %13
 G,2 A,/G,/F,/G,/ A,2 B,/A,/G,/A,/ | B,2 G,2 E,2 C2- | C2 (3:2:2B,2 ^D E2 A,2- | %16
 A,2 (3:2:2G,2 ^D E2 F,2- | (3F,G,A, (3G,F,E, (3^D,CB, (3A,G,F, | %18
 (3G,A,B, (3A,G,F, (3E,=DC (3B,A,G, | (3A,B,C (3B,A,G, (3F,ED (3CB,A, | (3B,CD (3CB,A, (3G,B,D G2 | %21
 C2 E2 (3F,A,C F2 | B,2 D2 (3E,G,B, E2 | A,2 C2 (3D,F,A, D2 | G,4 A,4 | B,2 z2 z4 | %26
 (3z A,G, (3F,G,A, (3z G,F, (3E,F,G, | (3z F,E, (3D,E,C, B,,2 ^C,2 | D,4 z2 D,2 | %29
 G,3- (3:2:2G,2 F,E, A,2 | (3D,F,A, B,2 (3E,G,A, ^C2 | (3F,G,A, D2 (3z CB, (3A,G,F, | %32
 (3E,G,B, (3^CEA, (3D,D=C (3B,A,G, | (3^C,E,G, (3A,^CF, (3B,,B,A, (3G,F,E, | A,4 z2 ^C2 | %35
 D4 z2 ^D2 | E4 z2 ^E2 | F4- (3FGF (3ED=C | D4- (3DED (3^CB,^A, | B,4- (3B,CB, (3A,G,F, | %40
 G,4- (3G,A,G, (3F,E,^D, | (3E,F,E, (3D,^C,B,, (3^A,,F,,^G,, (3A,,B,,C, | %42
 D,2 E,/D,/^C,/D,/ E,2 F,/E,/D,/E,/ | F,2 D,2 B,,2 G,/4F,/4G,3/2- | G,2 (3:2:2F,2 ^A, B,2 E,2- | %45
 E,2 (3:2:2D,2 ^A, z2 ^C,2- | (3C,D,E, (3D,^C,B,, (3^A,,G,F, (3E,D,C, | %47
 (3D,E,F, (3E,D,^C, (3B,,A,G, (3F,E,D, | (3E,F,G, (3F,E,D, (3^C,B,A, (3G,F,E, | %49
 (3F,G,A, (3G,F,E, (3^D,CB, (3A,G,F, | (3E,G,B, ^C2 (3F,A,=C ^D2 | (3G,B,^D E2 (3E,=DC (3B,A,^G, | %52
 A,4 G,4 | F,4 E,4 | ^D,2 E,2 F,2 B,,2 | E,2 F,2 G,2 ^G,2 | A,2 B,2 ^B,2 ^C2 | D,2 E,2 F,2 D,2 | %58
 G,2 A,2 B,2 G,2 | (3C,D,E, (3D,E,=F, (3E,^G,A, D,2 | C,2 =F,2 B,,4 | A,,2 z2 (3z B,C (3DE=F | %62
 (3^G,A,B, (3CDE (3F,G,A, (3B,CA, | (3^G,F,E, (3A,B,C (3=F,A,=G, (3F,G,E, | %64
 (3:2:2D,2 =F, (3:2:2E,2 ^D, E,4 | (3:2:2G,,2 E, (3:2:2A,2 B, (3:2:2C2 A, (3:2:2F,2 A, | %66
 (3B,,^C,^D, (3C,F,E, (3D,A,G, (3F,E,D, | (3E,F,G, (3F,E,_D, ^C,2 =C,2 | B,,8- | %69
 (3B,,^C,^D, (3E,F,G,- G,2- (3G,F,G, | B,,4 (3z C,B,, (3A,,G,,F,, | %71
 (3G,,A,,G,, (3F,,E,,^D,, E,,2 (3z E,,F,, | G,,2 A,,/G,,/F,,/G,,/ A,,2 B,,/A,,/G,,/A,,/ | %73
 B,,2 G,,2 E,,2 C,2- | C,2 (3:2:2B,,2 ^D, E,2 A,,2- | A,,2 (3:2:2G,,2 ^D, E,2 F,,2- | %76
 (3F,,G,,A,, (3G,,F,,E,, (3^D,,C,B,, (3A,,G,,F,, | (3G,,A,,B,, (3A,,G,,F,, (3E,,E,D, (3C,B,,^A,, | %78
 B,,8- | B,,2- (3B,,^A,B, B,,2- (3B,,A,B, | B,,2- (3B,,^A,B, B,,2- (3B,,A,B, | %81
 B,,2- (3B,,^A,B, (3F,G,^D, (3E,B,,C, | ^D,,2 z2 z4 | z4 !fermata!A,,2 (3z z ^A, | B,8- | %85
 (3B,^C^D (3E z ^A,, B,,4 | E,4- (3E,^D,E, E,,2 |] %87
V:3
 x2 | x8 | x8 | x8 | x8 | x8 | z4 z2 (3z B,^C | D/4^C/4D/-D E/D/C/D/ E2 F/E/D/E/ | F2 D2 B,2 G2- | %9
 G2 (3:2:2F2 ^A B2 E2- | E2 (3:2:2D2 ^A B2 ^C2- | (3CDE (3D^CB, (3^A,GF (3EDC | %12
 (3DEF (3ED^C (3B,=AG (3FE^D | E4 F4 | G4 (3^G=dc (3BA=G | A4 G4 | F4 E4 | ^D2 E2 F4- | %18
 (3:2:2F2 ^D (3:2:2E2 F G4- | (3:2:2G2 E (3:2:2F2 G A4- | (3:2:2A2 F (3:2:2G2 A B2 z2 | %21
 (3z dc (3BAG A2 z2 | (3z cB (3AGF G2 z2 | (3z BA (3GFE F2 z2 | (3z[I:staff +1] B,D E2- (3ECE F2- | %25
 (3FDF (3GG,B, (3EE,F, (3G,A,B, | C4 B,4 | A,4[I:staff -1] (3z[I:staff +1] D,G,- (3G,F,E, | %28
 F,2 G,2 A,2 F,2 | (3:2:2G,2 B, B,4 (3^CDE |[I:staff -1] F2 G/F/E/F/ G2 A/G/F/G/ | A2 F2 D2 B2- | %32
 B2 (3:2:2A2 ^c d2 G2- | G2 (3:2:2F2 ^c d2 E2- | %34
 (3EFG (3FE[I:staff +1]D (3^C[I:staff -1]BA[I:staff +1] (3GFE | %35
 (3FGA (3GFE (3D[I:staff -1]=cB[I:staff +1] (3AGF | (3GAB (3AGF (3E[I:staff -1]=d^c c2- | %37
 (3cde B2 ^c2 c2- | (3ced (3^cBA B2 c2 |[I:staff +1] F4[I:staff -1] f4 | (3fgf (3e^d^c- c2 (3def | %41
 B2 e2- (3eed (3^cB^A | (3BdB ^G2 ^c4- | c2 B2- (3B=AG (3FE^D |[I:staff +1] E4 D4 | ^C4 B,4 | %46
[I:staff -1] ^A,2 B,2 ^C4- | (3:2:2C2 ^A, (3:2:2B,2 ^C D4 | (3:2:2D2 B, (3:2:2^C2 D E4- | %49
 (3:2:2E2 ^C (3:2:2^D2 E F2- (3FEF | G2 A/G/F/G/ A2 B/A/G/A/ | B2 G2 E2 c2- | %52
 c2[I:staff +1] (3^DEF (3B,E=D[I:staff -1] A2- | A2[I:staff +1] (3B,CA, (3G,A,B, (3CB,A, | %54
 B,4[I:staff -1] (3^DcB (3AGF | (3GAB (3AGF[I:staff +1] E4- | %56
 (3:2:2E2 F- (3:2:2F2 ^G[I:staff -1] A2[I:staff +1] ^E2- | (3:2:2E2 D- (3:2:2D2 ^C D4- | %58
 (3:2:2D2 E- (3:2:2E2[I:staff -1] F (3GAG (3=FED | (3E=FG (3FED (3CDC[I:staff +1] (3B,A,^G, | %60
 A,4- (3A,D,^G, G,2 |[I:staff -1] (3z[I:staff +1] C,D, (3E,^F,^G, A,[I:staff -1] z z2 | d4 c4 | %63
 B4 A4 | (3:2:2G2[I:staff +1] ^G, (3:2:2A,2 C (3B,DC (3B,A,G, | %65
 A,[I:staff -1] z z2 (3z GF (3E^D^C | (3^DEF (3ED^C B,4- | %67
 (3:2:2B,2 B, (3:2:2C2 B,[I:staff +1] ^A,2 =A,2- | (3A,[I:staff -1]CB,[I:staff +1] (3A,G,F, G,4- | %69
 G,2[I:staff -1] z2[I:staff +1] ^A,,4 | %70
 G,2 G,/4F,/4G,/4F,/4G,/4F,/4G,/4!fermata!F,/4[I:staff -1] z4 | x8 | x8 | z4 (3z B^G (3EFG | %74
 A4 G4 | F4 E4 | ^D2 E2 F4- | (3:2:2F2 ^D (3:2:2B,2 D E4- | E2 z2 (3z[I:staff +1] ^D,E, (3F,G,A, | %79
 (3:2:2G,[I:staff -1] E2- E2- (3:2:2E F2- F2- | (3:2:2F G2- G2- (3:2:2G A2- A2- | %81
 (3:2:2A B2- B2 z4 | x8 | z4[I:staff +1] [F,B,]2[I:staff -1] (3z z[I:staff +1] F | %84
 G2- (3GFE (3:2:2D2 E (3:2:2F2 E | ^D[I:staff -1] z (3z[I:staff +1] F,G, F,2- (3F,G,A, | %86
 (3:2:2A, ^G,2- (3G,[I:staff -1]^G,A,- A,2 ^G,2 |] %87
V:4
 x2 | x8 | x8 | x8 | x8 | x8 | x8 | x8 | x8 | x8 | x8 | x8 | x8 | x8 | x8 | x8 | x8 | x8 | x8 | %19
 x8 | x8 | x8 | x8 | x8 | x8 | x8 | x8 | x8 | x8 | x8 | x8 | x8 | x8 | x8 | x8 | x8 | x8 | x8 | %38
 x8 | x8 | x8 | x8 | x8 | x8 | x8 | x8 | x8 | x8 | x8 | x8 | x8 | x8 | x8 | x8 | x8 | x8 | x8 | %57
 x8 | x8 | x8 | x8 | x8 | x8 | x8 | x8 | x8 | x8 | x8 | x8 | x8 | x8 | x8 | x8 | x8 | x8 | x8 | %76
 x8 | x8 | x8 | x8 | x8 | x8 | x8 | x8 | x8 | x8 | (3z B,D C2 B,4 |] %87

